X:683
T: SANKT MICHEL DE BAUET EEN KLOSTER
N: E2088
O: Europa, Mitteleuropa, Deutschland, Niederrhein, Niederkruechten
R: geistlich, Heiligen - Lied, Legende
M: 4/4
L: 1/8
K: F
C2 | F2F2C2DE | F4F2
A2 | G2F2FDE2 | F4z2
C2 | F2F2G2G2 | A4AG
F2 | G2G2EDE2 | F4z2

@@@ Tune index: 5367
